chains/taiko/logo.svg

<svg width="300" height="300" viewBox="0 0 300 300" fill="none" xmlns="http://www.w3.org/2000/svg">
<path d="M270.018 219.255L226.941 160.73C222.262 154.37 215.332 150.56 207.953 149.72C206.273 149.526 204.773 148.551 203.933 147.081C203.078 145.611 202.988 143.826 203.663 142.266C206.618 135.457 206.798 127.552 203.618 120.323L174.476 53.7586C170.156 43.8745 160.392 37.5 149.608 37.5C138.824 37.5 129.06 43.8895 124.74 53.7586L95.5975 120.323C92.4327 127.552 92.5977 135.457 95.5525 142.266C96.2274 143.826 96.1224 145.611 95.2825 147.081C94.4276 148.551 92.9427 149.526 91.2628 149.72C83.8834 150.56 76.9541 154.37 72.2745 160.73L29.1981 219.255C22.8086 227.939 22.1637 239.578 27.5482 248.922C32.9478 258.251 43.3569 263.516 54.066 262.331L126.285 254.292C134.129 253.422 140.894 249.327 145.303 243.358C146.308 241.993 147.913 241.183 149.608 241.183C151.303 241.183 152.893 241.993 153.913 243.358C158.322 249.327 165.087 253.422 172.931 254.292L245.15 262.331C255.859 263.531 266.268 258.266 271.668 248.922C277.052 239.578 276.407 227.939 270.018 219.255ZM114.436 128.677L143.623 62.0379C144.673 59.6531 147.028 58.1082 149.623 58.1082C152.218 58.1082 154.572 59.6531 155.622 62.0379L184.81 128.677C185.725 130.777 185.53 133.207 184.27 135.127C183.01 137.047 180.88 138.201 178.57 138.201H120.66C118.366 138.201 116.221 137.047 114.961 135.127C113.701 133.207 113.506 130.777 114.421 128.677H114.436ZM129.42 230.129C128.385 232.184 126.375 233.563 124.095 233.818L51.8012 241.858C49.2214 242.143 46.7016 240.883 45.3967 238.633C44.0918 236.383 44.2568 233.578 45.8017 231.479L88.923 172.894C90.2879 171.049 92.4778 169.999 94.7726 170.134C97.0674 170.254 99.1372 171.529 100.292 173.523L100.337 173.598L129.21 223.604L129.255 223.679C130.41 225.674 130.47 228.104 129.435 230.144L129.42 230.129ZM155.547 207.511C154.318 209.625 152.068 210.945 149.608 210.945C147.163 210.945 144.898 209.64 143.668 207.526L121.485 169.114C120.255 166.999 120.255 164.374 121.485 162.259C122.715 160.145 124.965 158.825 127.425 158.825H171.776C174.221 158.825 176.486 160.115 177.716 162.244C178.945 164.374 178.945 166.984 177.716 169.099L155.547 207.511ZM253.834 238.633C252.529 240.883 250.024 242.158 247.43 241.873L175.136 233.833C172.856 233.578 170.846 232.199 169.811 230.144C168.776 228.089 168.836 225.659 169.991 223.679L170.036 223.604L198.909 173.598L198.954 173.523C200.109 171.529 202.178 170.254 204.473 170.134C206.768 170.014 208.958 171.049 210.323 172.894L253.444 231.479C254.989 233.578 255.139 236.383 253.849 238.633H253.834Z" fill="#E81899"/>
</svg>

<svg xmlns="http://www.w3.org/2000/svg" width="300" height="300" fill="none"><path fill="#E81899" d="m270.018 219.255-43.077-58.525a27.343 27.343 0 0 0-18.988-11.01 5.332 5.332 0 0 1-4.02-2.639 5.346 5.346 0 0 1-.27-4.815c2.955-6.809 3.135-14.714-.045-21.943l-29.142-66.564A27.13 27.13 0 0 0 149.608 37.5a27.154 27.154 0 0 0-24.868 16.259l-29.142 66.564a27.373 27.373 0 0 0-.046 21.943 5.393 5.393 0 0 1-.27 4.815 5.357 5.357 0 0 1-4.02 2.639 27.344 27.344 0 0 0-18.987 11.01l-43.077 58.525a27.166 27.166 0 0 0-1.65 29.667 27.197 27.197 0 0 0 26.518 13.409l72.219-8.039a27.302 27.302 0 0 0 19.018-10.934 5.357 5.357 0 0 1 4.305-2.175c1.695 0 3.285.81 4.305 2.175a27.302 27.302 0 0 0 19.018 10.934l72.219 8.039c10.709 1.2 21.118-4.065 26.518-13.409a27.168 27.168 0 0 0-1.65-29.667Zm-155.582-90.578 29.187-66.64a6.567 6.567 0 0 1 6-3.929 6.566 6.566 0 0 1 5.999 3.93l29.188 66.639a6.799 6.799 0 0 1-6.24 9.524h-57.91a6.818 6.818 0 0 1-5.699-3.074 6.808 6.808 0 0 1-.54-6.45h.015Zm14.984 101.452a6.802 6.802 0 0 1-5.325 3.689l-72.294 8.04a6.572 6.572 0 0 1-6.404-3.225 6.532 6.532 0 0 1 .405-7.154l43.121-58.585a6.785 6.785 0 0 1 5.85-2.76 6.786 6.786 0 0 1 5.519 3.389l.045.075 28.873 50.006.045.075a6.776 6.776 0 0 1 .18 6.465l-.015-.015Zm26.127-22.618a6.872 6.872 0 0 1-5.939 3.434 6.879 6.879 0 0 1-5.94-3.419l-22.183-38.412a6.829 6.829 0 0 1 0-6.855 6.875 6.875 0 0 1 5.94-3.434h44.351a6.847 6.847 0 0 1 5.94 10.274l-22.169 38.412Zm98.287 31.122a6.57 6.57 0 0 1-6.404 3.24l-72.294-8.04a6.802 6.802 0 0 1-5.325-3.689 6.774 6.774 0 0 1 .18-6.465l.045-.075 28.873-50.006.045-.075a6.785 6.785 0 0 1 5.519-3.389 6.823 6.823 0 0 1 5.85 2.76l43.121 58.585a6.56 6.56 0 0 1 .405 7.154h-.015Z"/></svg>
